svgs/regular/cross.svg

<svg xmlns="http://www.w3.org/2000/svg" viewBox="0 0 384 512"><!--! Font Awesome Pro 6.6.0 by @fontawesome - https://fontawesome.com License - https://fontawesome.com/license (Commercial License) Copyright 2024 Fonticons, Inc. --><path d="M112 48c0-26.5 21.5-48 48-48l64 0c26.5 0 48 21.5 48 48l0 64 64 0c26.5 0 48 21.5 48 48l0 64c0 26.5-21.5 48-48 48l-64 0 0 192c0 26.5-21.5 48-48 48l-64 0c-26.5 0-48-21.5-48-48l0-192-64 0c-26.5 0-48-21.5-48-48l0-64c0-26.5 21.5-48 48-48l64 0 0-64zm112 0l-64 0 0 88c0 13.3-10.7 24-24 24l-88 0 0 64 88 0c13.3 0 24 10.7 24 24l0 216 64 0 0-216c0-13.3 10.7-24 24-24l88 0 0-64-88 0c-13.3 0-24-10.7-24-24l0-88z"/></svg>

<svg xmlns="http://www.w3.org/2000/svg" viewBox="0 0 384 512"><!--! Font Awesome Pro 6.4.0 by @fontawesome - https://fontawesome.com License - https://fontawesome.com/license (Commercial License) Copyright 2023 Fonticons, Inc. --><path d="M112 48c0-26.5 21.5-48 48-48h64c26.5 0 48 21.5 48 48v64h64c26.5 0 48 21.5 48 48v64c0 26.5-21.5 48-48 48H272V464c0 26.5-21.5 48-48 48H160c-26.5 0-48-21.5-48-48V272H48c-26.5 0-48-21.5-48-48V160c0-26.5 21.5-48 48-48h64V48zm112 0H160v88c0 13.3-10.7 24-24 24H48v64h88c13.3 0 24 10.7 24 24V464h64V248c0-13.3 10.7-24 24-24h88V160H248c-13.3 0-24-10.7-24-24V48z"/></svg>
